places/scalable/folder-books-legacy.svg

<?xml version="1.0" encoding="UTF-8" standalone="no"?>
<svg
   height="128"
   viewBox="0 0 128 128"
   width="128"
   version="1.1"
   id="svg5248"
   xmlns:xlink="http://www.w3.org/1999/xlink"
   xmlns="http://www.w3.org/2000/svg"
   xmlns:svg="http://www.w3.org/2000/svg">
  <defs
     id="defs5252">
    <filter
       style="color-interpolation-filters:sRGB"
       id="filter1302"
       x="-0.012000846"
       width="1.0240017"
       y="-0.011999155"
       height="1.0239983">
      <feGaussianBlur
         stdDeviation="2.0803224"
         id="feGaussianBlur1304" />
    </filter>
    <linearGradient
       id="bg-gradient-2">
      <stop
         style="stop-color:#3584e4;stop-opacity:1"
         offset="0"
         id="stop13402" />
      <stop
         style="stop-color:#62a0ea;stop-opacity:1"
         offset="1"
         id="stop13404" />
    </linearGradient>
    <clipPath
       clipPathUnits="userSpaceOnUse"
       id="clipPath1509">
      <path
         id="path1511"
         d="M 192,-164 H 88 c 0,0 -40,0 -40,40 V 4 h 416 v -96 c 0,0 0,-40 -40,-40 H 224 Z"
         style="display:inline;opacity:1;vector-effect:none;fill:#c9b8a7;fill-opacity:1;stroke:none;stroke-width:26.0669;stroke-linecap:butt;stroke-linejoin:miter;stroke-miterlimit:4;stroke-dasharray:none;stroke-dashoffset:0;stroke-opacity:1;marker:none;marker-start:none;marker-mid:none;marker-end:none;paint-order:normal;enable-background:new" />
    </clipPath>
    <filter
       style="color-interpolation-filters:sRGB"
       id="filter1529"
       x="-0.10846153"
       width="1.2169231"
       y="-0.13428571"
       height="1.2685714">
      <feGaussianBlur
         stdDeviation="18.8"
         id="feGaussianBlur1531" />
    </filter>
    <linearGradient
       id="linearGradient888">
      <stop
         style="stop-color:#99c1f1;stop-opacity:1"
         offset="0"
         id="stop884" />
      <stop
         style="stop-color:#c3e5e7;stop-opacity:1"
         offset="1"
         id="stop886" />
    </linearGradient>
    <linearGradient
       xlink:href="#bg-gradient-2"
       id="linearGradient5836"
       gradientUnits="userSpaceOnUse"
       x1="64"
       y1="756"
       x2="480"
       y2="756" />
    <linearGradient
       xlink:href="#linearGradient888"
       id="linearGradient5838"
       gradientUnits="userSpaceOnUse"
       x1="152.89844"
       y1="-38.796875"
       x2="447.30859"
       y2="316" />
  </defs>
  <linearGradient
     id="a"
     gradientUnits="userSpaceOnUse"
     x1="11.999989"
     x2="115.99999"
     y1="64"
     y2="64">
    <stop
       offset="0"
       stop-color="#3d3846"
       id="stop5214" />
    <stop
       offset="0.05"
       stop-color="#77767b"
       id="stop5216" />
    <stop
       offset="0.1"
       stop-color="#5e5c64"
       id="stop5218" />
    <stop
       offset="0.899999"
       stop-color="#504e56"
       id="stop5220" />
    <stop
       offset="0.95"
       stop-color="#77767b"
       id="stop5222" />
    <stop
       offset="1"
       stop-color="#3d3846"
       id="stop5224" />
  </linearGradient>
  <linearGradient
     id="b"
     gradientUnits="userSpaceOnUse"
     x1="12"
     x2="112.04102"
     y1="60"
     y2="80.988281">
    <stop
       offset="0"
       stop-color="#77767b"
       id="stop5227" />
    <stop
       offset="0.384443"
       stop-color="#9a9996"
       id="stop5229" />
    <stop
       offset="0.720567"
       stop-color="#77767b"
       id="stop5231" />
    <stop
       offset="1"
       stop-color="#68666f"
       id="stop5233" />
  </linearGradient>
  <g
     transform="matrix(0.2511615,0,0,0.2511615,-0.29292947,52.434794)"
     id="g5798"
     style="fill:#c9b8a7;fill-opacity:1;stroke:#a08f7f;stroke-opacity:1">
    <path
       id="path5786"
       d="m 88,-162 c 0,0 -40,0 -40,40 L 47.964844,6 h 0.0332 L 47.964844,254.0938 424,254 c 40,0 40,-40 40,-40 V 6 -42 -90 c 0,0 0,-40 -40,-40 H 224 l -32,-32 z"
       style="display:inline;opacity:0.2;fill:#000000;fill-opacity:1;stroke:none;stroke-width:26.0669;stroke-linecap:butt;stroke-linejoin:miter;stroke-miterlimit:4;stroke-dasharray:none;stroke-dashoffset:0;stroke-opacity:1;marker:none;marker-start:none;marker-mid:none;marker-end:none;paint-order:normal;filter:url(#filter1302);enable-background:new" />
    <path
       style="display:inline;opacity:1;fill:url(#linearGradient5836);fill-opacity:1;stroke:none;stroke-width:26.0669;stroke-linecap:butt;stroke-linejoin:miter;stroke-miterlimit:4;stroke-dasharray:none;stroke-dashoffset:0;stroke-opacity:1;marker:none;marker-start:none;marker-mid:none;marker-end:none;paint-order:normal;enable-background:new"
       d="M 208,672 H 104 c 0,0 -40,0 -40,40 v 128 h 416 v -96 c 0,0 0,-40 -40,-40 H 240 Z"
       transform="translate(-16,-836)"
       id="path5788" />
    <path
       id="path5790"
       d="m 256,-80 -32,32 H 88 c 0,0 -40,0 -40,40 v 264 h 376 c 40,0 40,-40 40,-40 V -40 c 0,-40 -40,-40 -40,-40 z"
       style="display:inline;opacity:0.1;fill:#000000;fill-opacity:1;stroke:none;stroke-width:26.0669;stroke-linecap:butt;stroke-linejoin:miter;stroke-miterlimit:4;stroke-dasharray:none;stroke-dashoffset:0;stroke-opacity:1;marker:none;marker-start:none;marker-mid:none;marker-end:none;paint-order:normal;filter:url(#filter1529);enable-background:new"
       clip-path="url(#clipPath1509)" />
    <path
       style="display:inline;opacity:1;fill:url(#linearGradient5838);fill-opacity:1;stroke:none;stroke-width:26.0669;stroke-linecap:butt;stroke-linejoin:miter;stroke-miterlimit:4;stroke-dasharray:none;stroke-dashoffset:0;stroke-opacity:1;marker:none;marker-start:none;marker-mid:none;marker-end:none;paint-order:normal;enable-background:new"
       d="m 256,-84 -32,32 H 88 c 0,0 -40,0 -40,40 v 264 h 376 c 40,0 40,-40 40,-40 V -44 c 0,-40 -40,-40 -40,-40 z"
       id="path5792" />
    <path
       style="font-variation-settings:normal;display:inline;opacity:1;fill:#99c1f1;fill-opacity:1;stroke:none;stroke-width:26.0669;stroke-linecap:butt;stroke-linejoin:miter;stroke-miterlimit:4;stroke-dasharray:none;stroke-dashoffset:0;stroke-opacity:1;marker:none;marker-start:none;marker-mid:none;marker-end:none;paint-order:normal;enable-background:new;stop-color:#000000;stop-opacity:1"
       d="m 480,1042 c 0,0 0,40 -40,40 l -375.998047,0.094 -0.0039,6 L 440,1088 c 40,0 40,-40 40,-40 z"
       transform="translate(-16,-836)"
       id="path5794" />
    <path
       style="display:inline;opacity:0.3;fill:#ffffff;fill-opacity:1;stroke:none;stroke-width:26.0669;stroke-linecap:butt;stroke-linejoin:miter;stroke-miterlimit:4;stroke-dasharray:none;stroke-dashoffset:0;stroke-opacity:1;marker:none;marker-start:none;marker-mid:none;marker-end:none;paint-order:normal;enable-background:new"
       d="m 272,752 -32,32 H 104 c 0,0 -40,0 -40,40 v 4 c 0,-40 40,-42 40,-42 h 136.59099 l 32,-32 H 440 c 5.38035,0 40,2 40,42 v -4 c 0,-40 -40,-40 -40,-40 z"
       id="path5796"
       transform="translate(-16,-836)" />
  </g>
  <g
     id="surface105959-1"
     transform="matrix(3.4941816,0,0,3.4941816,134.02619,48.099307)"
     style="fill:#3f8ae5;fill-opacity:1;stroke:none;stroke-width:0.893536" />
  <path
     id="path8882"
     style="fill:#438de6;fill-opacity:1;stroke-width:3"
     d="m 53.063359,75.524766 24.45117,0.0117 c 0.70656,3.6e-4 1.27441,0.570801 1.27441,1.277362 0,0.706562 -0.56785,1.274756 -1.27441,1.274414 l -24.45117,-0.0117 c -0.70656,-3.62e-4 -1.27442,-0.567873 -1.27442,-1.274432 0,-0.706561 0.56785,-1.277686 1.27442,-1.277344 z m 18.47461,-7.829935 c 0.70655,-2.94e-4 1.27441,0.567854 1.27441,1.274414 0,0.706561 -0.56785,1.277052 -1.27441,1.277344 l -12.49805,0.003 c -0.70655,2.88e-4 -1.27442,-0.567853 -1.27442,-1.274413 0,-0.706562 0.56787,-1.274129 1.27442,-1.274415 z M 47.40625,51.251953 c -3.273597,0 -5.90625,2.632659 -5.90625,5.90625 v 36.1875 c 0,3.273587 2.632653,5.90625 5.90625,5.90625 H 83.5 c 1.661998,0 3,-1.338012 3,-3 v -33 c 0,-1.661995 -1.338002,-3 -3,-3 h -36 c -1.661998,0 -3,-1.338005 -3,-3 0,-1.661995 1.338002,-3 3,-3 h 36 c 0,-1.675675 -1.324322,-3 -3,-3 z m 2.669922,12 h 30.425781 c 1.661998,0 3,1.338002 3,3 v 26.996094 c 0,1.661998 -1.338002,3 -3,3 H 50.076172 c -1.661998,0 -3,-1.338002 -3,-3 V 66.251953 c 0,-1.661998 1.338002,-3 3,-3 z" />
</svg>

<?xml version="1.0" encoding="UTF-8" standalone="no"?>
<svg
   height="128"
   viewBox="0 0 128 128"
   width="128"
   version="1.1"
   id="svg5248"
   xmlns:xlink="http://www.w3.org/1999/xlink"
   xmlns="http://www.w3.org/2000/svg"
   xmlns:svg="http://www.w3.org/2000/svg">
  <defs
     id="defs5252">
    <filter
       style="color-interpolation-filters:sRGB"
       id="filter1302"
       x="-0.012000846"
       width="1.0240017"
       y="-0.011999155"
       height="1.0239983">
      <feGaussianBlur
         stdDeviation="2.0803224"
         id="feGaussianBlur1304" />
    </filter>
    <linearGradient
       id="bg-gradient-2">
      <stop
         style="stop-color:#3584e4;stop-opacity:1"
         offset="0"
         id="stop13402" />
      <stop
         style="stop-color:#62a0ea;stop-opacity:1"
         offset="1"
         id="stop13404" />
    </linearGradient>
    <clipPath
       clipPathUnits="userSpaceOnUse"
       id="clipPath1509">
      <path
         id="path1511"
         d="M 192,-164 H 88 c 0,0 -40,0 -40,40 V 4 h 416 v -96 c 0,0 0,-40 -40,-40 H 224 Z"
         style="display:inline;opacity:1;vector-effect:none;fill:#c9b8a7;fill-opacity:1;stroke:none;stroke-width:26.0669;stroke-linecap:butt;stroke-linejoin:miter;stroke-miterlimit:4;stroke-dasharray:none;stroke-dashoffset:0;stroke-opacity:1;marker:none;marker-start:none;marker-mid:none;marker-end:none;paint-order:normal;enable-background:new" />
    </clipPath>
    <filter
       style="color-interpolation-filters:sRGB"
       id="filter1529"
       x="-0.10846153"
       width="1.2169231"
       y="-0.13428571"
       height="1.2685714">
      <feGaussianBlur
         stdDeviation="18.8"
         id="feGaussianBlur1531" />
    </filter>
    <linearGradient
       id="linearGradient888">
      <stop
         style="stop-color:#99c1f1;stop-opacity:1"
         offset="0"
         id="stop884" />
      <stop
         style="stop-color:#c3e5e7;stop-opacity:1"
         offset="1"
         id="stop886" />
    </linearGradient>
    <linearGradient
       xlink:href="#bg-gradient-2"
       id="linearGradient5836"
       gradientUnits="userSpaceOnUse"
       x1="64"
       y1="756"
       x2="480"
       y2="756" />
    <linearGradient
       xlink:href="#linearGradient888"
       id="linearGradient5838"
       gradientUnits="userSpaceOnUse"
       x1="152.89844"
       y1="-38.796875"
       x2="447.30859"
       y2="316" />
  </defs>
  <linearGradient
     id="a"
     gradientUnits="userSpaceOnUse"
     x1="11.999989"
     x2="115.99999"
     y1="64"
     y2="64">
    <stop
       offset="0"
       stop-color="#3d3846"
       id="stop5214" />
    <stop
       offset="0.05"
       stop-color="#77767b"
       id="stop5216" />
    <stop
       offset="0.1"
       stop-color="#5e5c64"
       id="stop5218" />
    <stop
       offset="0.899999"
       stop-color="#504e56"
       id="stop5220" />
    <stop
       offset="0.95"
       stop-color="#77767b"
       id="stop5222" />
    <stop
       offset="1"
       stop-color="#3d3846"
       id="stop5224" />
  </linearGradient>
  <linearGradient
     id="b"
     gradientUnits="userSpaceOnUse"
     x1="12"
     x2="112.04102"
     y1="60"
     y2="80.988281">
    <stop
       offset="0"
       stop-color="#77767b"
       id="stop5227" />
    <stop
       offset="0.384443"
       stop-color="#9a9996"
       id="stop5229" />
    <stop
       offset="0.720567"
       stop-color="#77767b"
       id="stop5231" />
    <stop
       offset="1"
       stop-color="#68666f"
       id="stop5233" />
  </linearGradient>
  <g
     transform="matrix(0.2511615,0,0,0.2511615,-0.29292947,52.434794)"
     id="g5798"
     style="fill:#c9b8a7;fill-opacity:1;stroke:#a08f7f;stroke-opacity:1">
    <path
       id="path5786"
       d="m 88,-162 c 0,0 -40,0 -40,40 L 47.964844,6 h 0.0332 L 47.964844,254.0938 424,254 c 40,0 40,-40 40,-40 V 6 -42 -90 c 0,0 0,-40 -40,-40 H 224 l -32,-32 z"
       style="display:inline;opacity:0.2;fill:#000000;fill-opacity:1;stroke:none;stroke-width:26.0669;stroke-linecap:butt;stroke-linejoin:miter;stroke-miterlimit:4;stroke-dasharray:none;stroke-dashoffset:0;stroke-opacity:1;marker:none;marker-start:none;marker-mid:none;marker-end:none;paint-order:normal;filter:url(#filter1302);enable-background:new" />
    <path
       style="display:inline;opacity:1;fill:url(#linearGradient5836);fill-opacity:1;stroke:none;stroke-width:26.0669;stroke-linecap:butt;stroke-linejoin:miter;stroke-miterlimit:4;stroke-dasharray:none;stroke-dashoffset:0;stroke-opacity:1;marker:none;marker-start:none;marker-mid:none;marker-end:none;paint-order:normal;enable-background:new"
       d="M 208,672 H 104 c 0,0 -40,0 -40,40 v 128 h 416 v -96 c 0,0 0,-40 -40,-40 H 240 Z"
       transform="translate(-16,-836)"
       id="path5788" />
    <path
       id="path5790"
       d="m 256,-80 -32,32 H 88 c 0,0 -40,0 -40,40 v 264 h 376 c 40,0 40,-40 40,-40 V -40 c 0,-40 -40,-40 -40,-40 z"
       style="display:inline;opacity:0.1;fill:#000000;fill-opacity:1;stroke:none;stroke-width:26.0669;stroke-linecap:butt;stroke-linejoin:miter;stroke-miterlimit:4;stroke-dasharray:none;stroke-dashoffset:0;stroke-opacity:1;marker:none;marker-start:none;marker-mid:none;marker-end:none;paint-order:normal;filter:url(#filter1529);enable-background:new"
       clip-path="url(#clipPath1509)" />
    <path
       style="display:inline;opacity:1;fill:url(#linearGradient5838);fill-opacity:1;stroke:none;stroke-width:26.0669;stroke-linecap:butt;stroke-linejoin:miter;stroke-miterlimit:4;stroke-dasharray:none;stroke-dashoffset:0;stroke-opacity:1;marker:none;marker-start:none;marker-mid:none;marker-end:none;paint-order:normal;enable-background:new"
       d="m 256,-84 -32,32 H 88 c 0,0 -40,0 -40,40 v 264 h 376 c 40,0 40,-40 40,-40 V -44 c 0,-40 -40,-40 -40,-40 z"
       id="path5792" />
    <path
       style="font-variation-settings:normal;display:inline;opacity:1;fill:#99c1f1;fill-opacity:1;stroke:none;stroke-width:26.0669;stroke-linecap:butt;stroke-linejoin:miter;stroke-miterlimit:4;stroke-dasharray:none;stroke-dashoffset:0;stroke-opacity:1;marker:none;marker-start:none;marker-mid:none;marker-end:none;paint-order:normal;enable-background:new;stop-color:#000000;stop-opacity:1"
       d="m 480,1042 c 0,0 0,40 -40,40 l -375.998047,0.094 -0.0039,6 L 440,1088 c 40,0 40,-40 40,-40 z"
       transform="translate(-16,-836)"
       id="path5794" />
    <path
       style="display:inline;opacity:0.3;fill:#ffffff;fill-opacity:1;stroke:none;stroke-width:26.0669;stroke-linecap:butt;stroke-linejoin:miter;stroke-miterlimit:4;stroke-dasharray:none;stroke-dashoffset:0;stroke-opacity:1;marker:none;marker-start:none;marker-mid:none;marker-end:none;paint-order:normal;enable-background:new"
       d="m 272,752 -32,32 H 104 c 0,0 -40,0 -40,40 v 4 c 0,-40 40,-42 40,-42 h 136.59099 l 32,-32 H 440 c 5.38035,0 40,2 40,42 v -4 c 0,-40 -40,-40 -40,-40 z"
       id="path5796"
       transform="translate(-16,-836)" />
  </g>
  <g
     id="surface105959-1"
     transform="matrix(3.4941816,0,0,3.4941816,134.02619,48.099307)"
     style="fill:#3f8ae5;fill-opacity:1;stroke:none;stroke-width:0.893536" />
  <path
     id="rect4665-8"
     style="fill:#438de6;fill-opacity:1;stroke-width:3"
     d="M 47.40625 51.251953 C 44.132653 51.251953 41.5 53.884612 41.5 57.158203 L 41.5 93.345703 C 41.5 96.61929 44.132653 99.251953 47.40625 99.251953 L 83.5 99.251953 C 85.161998 99.251953 86.5 97.913941 86.5 96.251953 L 86.5 63.251953 C 86.5 61.589958 85.161998 60.251953 83.5 60.251953 L 47.5 60.251953 C 45.838002 60.251953 44.5 58.913948 44.5 57.251953 C 44.5 55.589958 45.838002 54.251953 47.5 54.251953 L 83.5 54.251953 C 83.5 52.576278 82.175678 51.251953 80.5 51.251953 L 47.40625 51.251953 z M 50.076172 63.251953 L 80.501953 63.251953 C 82.163951 63.251953 83.501953 64.589955 83.501953 66.251953 L 83.501953 93.248047 C 83.501953 94.910045 82.163951 96.248047 80.501953 96.248047 L 50.076172 96.248047 C 48.414174 96.248047 47.076172 94.910045 47.076172 93.248047 L 47.076172 66.251953 C 47.076172 64.589955 48.414174 63.251953 50.076172 63.251953 z " />
  <path
     d="m 71.537969,67.694831 c 0.70655,-2.94e-4 1.27441,0.567854 1.27441,1.274414 0,0.706561 -0.56785,1.277052 -1.27441,1.277344 l -12.49805,0.003 c -0.70655,2.88e-4 -1.27442,-0.567853 -1.27442,-1.274413 0,-0.706562 0.56787,-1.274129 1.27442,-1.274415 z"
     style="fill:#438de6;fill-opacity:1;stroke-width:3"
     id="path8910" />
  <path
     d="m 53.063359,75.524766 24.45117,0.0117 c 0.70656,3.6e-4 1.27441,0.570801 1.27441,1.277362 0,0.706562 -0.56785,1.274756 -1.27441,1.274414 l -24.45117,-0.0117 c -0.70656,-3.62e-4 -1.27442,-0.567873 -1.27442,-1.274432 0,-0.706561 0.56785,-1.277686 1.27442,-1.277344 z"
     style="fill:#438de6;fill-opacity:1;stroke-width:3"
     id="path8882" />
</svg>
